dist/img/logo-footer.svg

<svg width="98" height="94" viewBox="0 0 98 94" fill="none" xmlns="http://www.w3.org/2000/svg">
<path d="M88.2504 68.8118C98.6818 49.0408 91.9434 24.6058 73.3654 12.2352C57.5873 1.7293 32.0932 2.9502 22.2163 14.9145C56.0285 17.9438 78.0646 35.5424 88.2504 68.8118ZM84.9667 81.452C82.0981 43.711 50.716 15.9206 10.7957 20.3062C14.9054 9.76232 33.5928 -0.00463104 48.8388 7.62939e-06C69.5245 0.00628662 88.2632 13.0836 95.3864 32.927C101.38 49.624 96.7154 72.0557 84.9667 81.452Z" fill="#F2571A"/>
<path d="M22.7493 34.9628C38.3427 35.4434 52.6325 39.817 63.7595 50.9385C70.2843 57.4603 75.4266 65.3651 81.1103 72.7287C76.156 41.123 42.3495 17.1795 11.0386 22.9923C7.79339 23.5949 6.0952 25.0788 4.73267 27.9152C-5.45407 49.1211 1.26475 75.5244 20.4568 88.9153C22.6819 90.4681 25.2094 91.5877 28.8347 93.5932C26.7103 90.2421 25.3854 88.2921 24.2005 86.2604C15.4981 71.3383 13.7066 55.5299 18.009 38.8758C18.7054 36.1802 19.7082 34.8692 22.7493 34.9628Z" fill="#127EBD"/>
</svg>

<svg width="98" height="94" fill="none" xmlns="http://www.w3.org/2000/svg"><path d="M88.25 68.812c10.432-19.771 3.693-44.206-14.885-56.577C57.587 1.73 32.093 2.95 22.216 14.915 56.03 17.944 78.065 35.541 88.25 68.811zm-3.283 12.64c-2.869-37.741-34.251-65.531-74.171-61.146C14.906 9.762 33.593-.004 48.839 0c20.686.006 39.424 13.084 46.547 32.927 5.994 16.697 1.33 39.129-10.42 48.525z" fill="#F2571A"/><path d="M22.75 34.963c15.593.48 29.883 4.854 41.01 15.975 6.524 6.522 11.667 14.427 17.35 21.79-4.954-31.604-38.76-55.548-70.07-49.735-3.246.603-4.944 2.087-6.306 4.923-10.187 21.206-3.468 47.61 15.724 61 2.225 1.553 4.752 2.673 8.378 4.678-2.125-3.35-3.45-5.3-4.634-7.333-8.703-14.922-10.494-30.73-6.192-47.384.696-2.696 1.7-4.007 4.74-3.913z" fill="#127EBD"/></svg>
